documentation/public/assets/images/switch-03-do.svg

<svg width="108" height="21" viewBox="0 0 108 21" fill="none" xmlns="http://www.w3.org/2000/svg">
<rect x="0.570312" y="0.259766" width="40" height="20" rx="10" fill="#0F67F5"/>
<ellipse cx="30.5703" cy="10.2598" rx="8" ry="8" fill="white"/>
<path d="M56.0204 7.98467C55.9714 7.57068 55.7726 7.2493 55.4239 7.02052C55.0753 6.79174 54.6477 6.67735 54.1411 6.67735C53.7707 6.67735 53.4466 6.73727 53.1688 6.85711C52.8937 6.97695 52.6786 7.14172 52.5233 7.35144C52.3708 7.56115 52.2946 7.79946 52.2946 8.06637C52.2946 8.28971 52.3477 8.48172 52.4539 8.64241C52.5628 8.80037 52.7017 8.93247 52.8706 9.03869C53.0395 9.14218 53.2165 9.22797 53.4017 9.29606C53.5869 9.36143 53.7571 9.41454 53.9124 9.45539L54.7621 9.68417C54.98 9.74137 55.2224 9.82035 55.4893 9.92112C55.7589 10.0219 56.0163 10.1594 56.2614 10.3337C56.5093 10.5053 56.7135 10.7259 56.8742 10.9956C57.0349 11.2652 57.1153 11.5961 57.1153 11.9883C57.1153 12.4404 56.9968 12.849 56.7598 13.2139C56.5256 13.5789 56.1825 13.8689 55.7303 14.0841C55.281 14.2993 54.7349 14.4068 54.0921 14.4068C53.4929 14.4068 52.9741 14.3102 52.5356 14.1168C52.0998 13.9234 51.7567 13.6538 51.5061 13.3079C51.2582 12.962 51.118 12.5603 51.0853 12.1027H52.1311C52.1584 12.4186 52.2646 12.6801 52.4498 12.8871C52.6377 13.0914 52.8747 13.2439 53.1607 13.3446C53.4494 13.4427 53.7598 13.4917 54.0921 13.4917C54.4789 13.4917 54.8261 13.4291 55.1339 13.3038C55.4416 13.1758 55.6854 12.9988 55.8652 12.7727C56.0449 12.5439 56.1348 12.277 56.1348 11.972C56.1348 11.6942 56.0572 11.4681 55.9019 11.2938C55.7467 11.1195 55.5424 10.9779 55.2891 10.8689C55.0358 10.76 54.7621 10.6647 54.468 10.5829L53.4385 10.2888C52.7848 10.1009 52.2673 9.83261 51.886 9.48399C51.5047 9.13537 51.3141 8.67918 51.3141 8.1154C51.3141 7.64694 51.4407 7.23841 51.694 6.88979C51.95 6.53845 52.2932 6.2661 52.7235 6.07272C53.1566 5.87663 53.64 5.77858 54.1738 5.77858C54.7131 5.77858 55.1924 5.87526 55.6119 6.06864C56.0313 6.25929 56.3636 6.52075 56.6087 6.85302C56.8565 7.1853 56.9873 7.56251 57.0009 7.98467H56.0204ZM58.7811 14.2598V5.89297H63.8306V6.79174H59.7942V9.61881H63.5691V10.5176H59.7942V13.361H63.8959V14.2598H58.7811ZM72.2913 5.89297V14.2598H71.3108L66.7516 7.69052H66.6699V14.2598H65.6567V5.89297H66.6372L71.2128 12.4786H71.2945V5.89297H72.2913ZM77.5543 14.2598V5.89297H78.5184V8.98149H78.6001C78.6709 8.87255 78.769 8.73365 78.8943 8.56479C79.0223 8.3932 79.2048 8.24068 79.4417 8.10723C79.6814 7.97105 80.0055 7.90296 80.414 7.90296C80.9424 7.90296 81.4081 8.03505 81.8112 8.29924C82.2143 8.56342 82.5289 8.93792 82.7549 9.42271C82.981 9.90751 83.094 10.4795 83.094 11.1386C83.094 11.8031 82.981 12.3791 82.7549 12.8667C82.5289 13.3515 82.2157 13.7273 81.8153 13.9942C81.4149 14.2584 80.9533 14.3905 80.4304 14.3905C80.0273 14.3905 79.7045 14.3238 79.4621 14.1903C79.2197 14.0541 79.0332 13.9003 78.9025 13.7287C78.7717 13.5544 78.6709 13.41 78.6001 13.2956H78.4857V14.2598H77.5543ZM78.5021 11.1222C78.5021 11.5961 78.5715 12.0142 78.7104 12.3764C78.8493 12.7359 79.0522 13.0178 79.3192 13.2221C79.5861 13.4236 79.9129 13.5244 80.2996 13.5244C80.7027 13.5244 81.0391 13.4182 81.3087 13.2057C81.5811 12.9906 81.7853 12.7019 81.9215 12.3397C82.0604 11.9747 82.1299 11.5689 82.1299 11.1222C82.1299 10.681 82.0618 10.2834 81.9256 9.92929C81.7922 9.57251 81.5893 9.29062 81.3169 9.08363C81.0473 8.87391 80.7082 8.76905 80.2996 8.76905C79.9074 8.76905 79.5779 8.86846 79.311 9.06728C79.0441 9.26338 78.8425 9.53846 78.7064 9.89253C78.5702 10.2439 78.5021 10.6538 78.5021 11.1222ZM84.5688 14.2598V7.98467H85.5003V8.93247H85.5657C85.68 8.62198 85.887 8.37005 86.1866 8.17668C86.4862 7.9833 86.8239 7.88662 87.1998 7.88662C87.2706 7.88662 87.3591 7.88798 87.4653 7.8907C87.5716 7.89343 87.6519 7.89751 87.7064 7.90296V8.88344C87.6737 8.87527 87.5988 8.86302 87.4817 8.84668C87.3673 8.82761 87.2461 8.81808 87.1181 8.81808C86.8131 8.81808 86.5407 8.88208 86.301 9.01009C86.0641 9.13537 85.8761 9.30968 85.7372 9.53301C85.6011 9.75362 85.533 10.0056 85.533 10.2888V14.2598H84.5688ZM91.2892 14.3905C90.6846 14.3905 90.163 14.257 89.7245 13.9901C89.2888 13.7205 88.9524 13.3446 88.7155 12.8626C88.4812 12.3778 88.3641 11.814 88.3641 11.1712C88.3641 10.5285 88.4812 9.96198 88.7155 9.47173C88.9524 8.97877 89.282 8.59475 89.7041 8.31967C90.129 8.04186 90.6247 7.90296 91.1912 7.90296C91.518 7.90296 91.8408 7.95743 92.1594 8.06637C92.4781 8.17532 92.7681 8.35235 93.0296 8.59747C93.2911 8.83987 93.4994 9.16125 93.6547 9.56161C93.8099 9.96198 93.8875 10.4549 93.8875 11.0405V11.449H89.0505V10.6156H92.907C92.907 10.2616 92.8362 9.94563 92.6946 9.66783C92.5557 9.39003 92.3569 9.17078 92.0981 9.01009C91.8421 8.8494 91.5398 8.76905 91.1912 8.76905C90.8072 8.76905 90.4749 8.86438 90.1944 9.05503C89.9166 9.24295 89.7028 9.48808 89.553 9.79039C89.4032 10.0927 89.3283 10.4168 89.3283 10.7627V11.3183C89.3283 11.7922 89.41 12.1939 89.5734 12.5235C89.7395 12.8503 89.9697 13.0995 90.2638 13.2711C90.558 13.44 90.8998 13.5244 91.2892 13.5244C91.5425 13.5244 91.7713 13.489 91.9756 13.4182C92.1826 13.3446 92.361 13.2357 92.5108 13.0914C92.6606 12.9443 92.7763 12.7618 92.858 12.5439L93.7895 12.8054C93.6914 13.1213 93.5266 13.3991 93.2951 13.6388C93.0636 13.8757 92.7777 14.0609 92.4372 14.1944C92.0968 14.3251 91.7141 14.3905 91.2892 14.3905ZM97.2007 14.4068C96.8031 14.4068 96.4422 14.3319 96.1181 14.1821C95.794 14.0296 95.5366 13.8104 95.346 13.5244C95.1553 13.2357 95.06 12.8871 95.06 12.4786C95.06 12.119 95.1308 11.8276 95.2725 11.6043C95.4141 11.3782 95.6034 11.2012 95.8403 11.0732C96.0773 10.9452 96.3387 10.8499 96.6247 10.7872C96.9134 10.7219 97.2035 10.6701 97.4949 10.632C97.8762 10.5829 98.1853 10.5462 98.4223 10.5217C98.6619 10.4944 98.8362 10.4495 98.9452 10.3869C99.0568 10.3242 99.1127 10.2153 99.1127 10.06V10.0273C99.1127 9.62425 99.0024 9.31104 98.7818 9.08771C98.5639 8.86438 98.233 8.75271 97.789 8.75271C97.3287 8.75271 96.9679 8.85348 96.7064 9.05503C96.4449 9.25657 96.2611 9.47173 96.1549 9.70051L95.2398 9.37369C95.4032 8.99239 95.6211 8.69552 95.8934 8.48308C96.1685 8.26792 96.4681 8.11812 96.7922 8.03369C97.119 7.94654 97.4404 7.90296 97.7563 7.90296C97.9579 7.90296 98.1894 7.92747 98.4509 7.9765C98.715 8.0228 98.9697 8.11948 99.2148 8.26656C99.4627 8.41363 99.6683 8.6356 99.8317 8.93247C99.9951 9.22934 100.077 9.62698 100.077 10.1254V14.2598H99.1127V13.41H99.0637C98.9983 13.5462 98.8893 13.6919 98.7368 13.8471C98.5843 14.0024 98.3814 14.1345 98.1281 14.2434C97.8748 14.3524 97.5657 14.4068 97.2007 14.4068ZM97.3478 13.5407C97.7291 13.5407 98.0505 13.4658 98.312 13.316C98.5761 13.1663 98.775 12.9729 98.9084 12.7359C99.0446 12.499 99.1127 12.2498 99.1127 11.9883V11.1059C99.0718 11.1549 98.9819 11.1998 98.843 11.2407C98.7069 11.2788 98.5489 11.3129 98.3691 11.3428C98.1921 11.3701 98.0192 11.3946 97.8503 11.4164C97.6842 11.4354 97.5494 11.4518 97.4459 11.4654C97.1953 11.4981 96.9611 11.5512 96.7432 11.6247C96.528 11.6955 96.3537 11.8031 96.2203 11.9475C96.0895 12.0891 96.0242 12.2825 96.0242 12.5276C96.0242 12.8626 96.1481 13.1159 96.3959 13.2875C96.6465 13.4563 96.9638 13.5407 97.3478 13.5407ZM102.735 11.972L102.719 10.779H102.915L105.66 7.98467H106.853L103.928 10.9425H103.847L102.735 11.972ZM101.837 14.2598V5.89297H102.801V14.2598H101.837ZM105.824 14.2598L103.373 11.1549L104.059 10.4849L107.049 14.2598H105.824Z" fill="#1F1F1F"/>
</svg>

<svg width="108" height="21" fill="none" xmlns="http://www.w3.org/2000/svg"><rect x=".57" y=".26" width="40" height="20" rx="10" fill="#0F67F5"/><circle cx="30.57" cy="10.26" fill="#fff" r="8"/><path d="M56.02 7.98a1.28 1.28 0 0 0-.6-.96 2.29 2.29 0 0 0-1.28-.34c-.37 0-.7.06-.97.18-.28.12-.5.28-.65.5a1.18 1.18 0 0 0-.07 1.28c.11.16.25.3.42.4.17.1.35.19.53.26l.51.16.85.22c.22.06.46.14.73.24.27.1.53.24.77.41a1.9 1.9 0 0 1 .85 1.65c0 .46-.11.87-.35 1.23-.23.37-.58.66-1.03.87-.45.22-1 .33-1.64.33-.6 0-1.12-.1-1.55-.3a2.45 2.45 0 0 1-1.03-.8 2.3 2.3 0 0 1-.42-1.2h1.04c.03.3.13.57.32.78.19.2.42.35.71.45.29.1.6.15.93.15.39 0 .74-.06 1.04-.19.31-.12.56-.3.74-.53.17-.23.26-.5.26-.8 0-.28-.07-.5-.23-.68a1.7 1.7 0 0 0-.61-.42c-.25-.11-.53-.2-.82-.29l-1.03-.3a3.83 3.83 0 0 1-1.55-.8c-.39-.34-.58-.8-.58-1.36 0-.47.13-.88.38-1.23.26-.35.6-.62 1.03-.82.44-.2.92-.3 1.45-.3.54 0 1.02.1 1.44.3.42.19.75.45 1 .78.25.34.38.71.4 1.13h-.99Zm2.76 6.28V5.89h5.05v.9H59.8v2.83h3.78v.9H59.8v2.84h4.1v.9h-5.1ZM72.3 5.89v8.37h-.98l-4.56-6.57h-.08v6.57h-1.01V5.89h.98l4.57 6.59h.08V5.89h1Zm5.26 8.37V5.89h.97V9h.08c.07-.12.17-.26.3-.43.12-.17.3-.32.54-.45.24-.14.57-.2.97-.2a2.5 2.5 0 0 1 2.34 1.51 4 4 0 0 1 .34 1.72c0 .66-.1 1.24-.34 1.73a2.46 2.46 0 0 1-2.32 1.52 2 2 0 0 1-.97-.2 1.8 1.8 0 0 1-.56-.46 6.16 6.16 0 0 1-.3-.43h-.11v.96h-.94Zm.95-3.14c0 .48.07.9.21 1.26.14.36.34.64.6.84.28.2.6.3.99.3.4 0 .74-.1 1-.31.28-.22.49-.5.62-.87.14-.37.21-.77.21-1.22 0-.44-.07-.84-.2-1.2a1.84 1.84 0 0 0-.61-.84 1.6 1.6 0 0 0-1.02-.31 1.6 1.6 0 0 0-1.6 1.12c-.13.35-.2.76-.2 1.23Zm6.07 3.14V7.98h.93v.95h.07a1.76 1.76 0 0 1 1.63-1.05 10.7 10.7 0 0 1 .5.02v.98a2.87 2.87 0 0 0-.58-.06c-.3 0-.58.06-.82.19s-.42.3-.56.52c-.14.22-.2.48-.2.76v3.97h-.97Zm6.72.13a2.69 2.69 0 0 1-2.57-1.53 3.84 3.84 0 0 1-.36-1.69c0-.64.12-1.2.36-1.7A2.66 2.66 0 0 1 91.2 7.9c.32 0 .64.06.96.17a2.4 2.4 0 0 1 1.5 1.5c.15.4.23.88.23 1.47v.4h-4.84v-.82h3.86c0-.36-.07-.67-.22-.95a1.6 1.6 0 0 0-1.5-.9c-.38 0-.72.1-1 .29-.27.18-.49.43-.64.73-.15.3-.22.63-.22.97v.56c0 .47.08.87.24 1.2.17.33.4.58.7.75.29.17.63.25 1.02.25.25 0 .48-.03.69-.1.2-.08.38-.18.53-.33.15-.15.27-.33.35-.55l.93.27c-.1.31-.26.59-.5.83-.23.24-.51.42-.85.55-.34.14-.73.2-1.15.2Zm5.91.02c-.4 0-.76-.08-1.08-.23a1.86 1.86 0 0 1-.77-.66c-.2-.28-.29-.63-.29-1.04 0-.36.07-.65.21-.88.14-.22.33-.4.57-.53.24-.12.5-.22.78-.28.3-.07.58-.12.87-.16l.93-.1c.24-.04.42-.08.53-.14.1-.07.16-.17.16-.33v-.03c0-.4-.1-.72-.33-.94-.22-.23-.55-.34-1-.34a1.72 1.72 0 0 0-1.63.95l-.91-.33a2.2 2.2 0 0 1 1.55-1.34 3.73 3.73 0 0 1 1.66-.05 1.96 1.96 0 0 1 1.38.95c.17.3.25.7.25 1.2v4.13h-.97v-.85h-.05a1.88 1.88 0 0 1-.94.83c-.25.11-.55.17-.92.17Zm.15-.87c.38 0 .7-.07.96-.22a1.53 1.53 0 0 0 .8-1.33v-.88a.66.66 0 0 1-.27.13 4.53 4.53 0 0 1-.99.18l-.4.05a3.6 3.6 0 0 0-.7.15c-.22.08-.4.18-.53.33a.82.82 0 0 0-.2.58c0 .33.13.59.38.76.25.17.56.25.95.25Zm5.39-1.57-.02-1.2h.2l2.74-2.79h1.2l-2.93 2.96h-.08l-1.11 1.03Zm-.9 2.29V5.89h.96v8.37h-.96Zm3.98 0-2.45-3.1.69-.68 2.99 3.78h-1.23Z" fill="#1F1F1F"/></svg>
